**kern	**kern
*staff2	*staff1
=1-	=1-
*clefF4	*clefG2
*k[f#c#g#d#a#e#]	*k[f#c#g#d#a#e#]
*F#:	*F#:
*M2/4	*M2/4
4FF#/ 4AA#/ 4C#/	2r
8CC#/L	.
8CC#/J	.
=2	=2
4FF#/ 4AA#/ 4C#/	2r
8CC#/L	.
8CC#/J	.
=3	=3
4FF#/ 4AA#/ 4C#/	2r
8CC#/L	.
8CC#/J	.
=4	=4
4FF#/ 4AA#/ 4C#/	4r
8CC#/L	8r
8CC#/J	8c#/
=5	=5
4FF#/ 4AA#/ 4C#/	8f#/L
.	8g#/J
8CC#/L	8a#/L
8CC#/J	8b/J
=6	=6
4FF#/ 4AA#/ 4C#/	[2b#\
8CC#/L	.
8CC#/J	.
=7	=7
4FF#/ 4AA#/ 4C#/	2b#\_
8CC#/L	.
8CC#/J	.
=8	=8
4FF#/ 4AA#/ 4C#/	8b#\L]
.	8ggn\J
8CC#/L	8ff#\L
8CC#/J	8ee#\J
=9	=9
4FF#/ 4AA#/ 4C#/	4ff#\
8CC#/L	[4cc#\
8CC#/J	.
=10	=10
!!linebreak:original
*M3/4	*M3/4
4FF#/ 4AA#/ 4C#/	4cc#\]
8CC#/L	8dd#\L
8CC#/J	8cc#\J
[4FF#/ [4AA#/ [4C#/	8b/L
.	8a#/J
=11	=11
*M2/4	*M2/4
4FF#/] 4AA#/] 4C#/]	8an/L
.	8fn/J
4r	4dn/
=12	=12
4.AA#/	4r
.	4dn/
8BB/	.
=13	=13
8C#/L	4dn/ 4a#/
8BB/J	.
8AA#/L	4d/ 4an/
8GG#/J	.
=14	=14
4FF#/ 4AA#/ 4C#/	8dn/L 8gn/
.	8c#/J 8f#/
8CC#/L	8c#/L 8f#/
8CC#/J	8c#/J 8f#/
=15	=15
4FF#/ 4AA#/ 4C#/	4c#/ 4f#/
8CC#/L	4r
8CC#/J	.
=16	=16
4FF#/ 4AA#/ 4C#/	4ggn\
8CC#/L	[4gg\
8CC#/J	.
=17	=17
!!linebreak:original
4FF#/ 4AA#/ 4C#/	16gg\LL]
.	16ff#\
.	16cc#\
.	16a#\JJ
8CC#/L	4f#/
8CC#/J	.
=18	=18
4FF#/ 4AA#/ 4C#/	16d#/LL
.	16g#/
.	16b#/
.	16dd#/JJ
8CC#/L	8cc#/L
8CC#/J	8a#/J
=19	=19
4FF#/ 4AA#/ 4C#/	2f#/
8CC#/L	.
8CC#/J	.
=20	=20
8r	24a#\LL
.	24dd#\
.	24ff#\JJ
16BB/LL	8aa#\
16AA#/JJ	.
8GG##/L	24g##\LL
.	24dd#\
.	24ff#\JJ
8AA#/J	8aa#\
=21	=21
4F#\	8r
.	8g#\ 8cc##\ 8ee#\ 8aa#\
4E#\	8r
.	8g#\ 8cc##\ 8ee#\ 8aa#\
=22	=22
!!linebreak:original
*M3/4	*M3/4
[2En\	8r
.	4g#\ 4cc##\ 4ee#\ 4aa#\
.	8bb\
16E\LL]	8cccn\L
16E-\	.
16Dn\	8eeen\J
16D-\JJ	.
=23	=23
*M5/8	*M5/8
8C#/L	8eeen\L
8Gn/J 8e-/	8cccn\J
4r	8r
.	8g#/L
8r	8g#/J
=24	=24
*M2/4	*M2/4
4CC#/ 4EE#/ 4GG#/	[2ee#\
8GGG#/L	.
8GGG#/J	.
=25	=25
4CC#/ 4EE#/ 4GG#/	8ee#\L]
.	8een\J
4r	8ee#\L
.	8ff##\J
=26	=26
4BBB/ 4DD#/ 4FF#/	[2aa#\
8FFF#/L	.
8FFF#/J	.
=27	=27
!!linebreak:original
4BBB/ 4DD#/ 4FF#/	4aa#\]
4r	4gg#\
=28	=28
2r	4.ggg#\
.	8gggn\
=29	=29
4FFF#/ 4AAA#/ 4CC#/	8gggn\L
.	8fff#\J
8CCC#/L	8r
8CCC#/J	8ccc#\
=30	=30
4FFF#/ 4AAA#/ 4CC#/	8fff#\L
.	8ggg#\J
8CCC#/L	8aaa#\L
8CCC#/J	8bbb\J
=31	=31
4FFF#/ 4AAA#/ 4CC#/	[2cccc#\
8CCC#/L	.
8CCC#/J	.
=32	=32
4FFF#/ 4AAA#/ 4CC#/	8cccc#\L]
.	8gggg#\J
8CCC#/L	8ffff#\L
8CCC#/J	8eeee#\J
=33	=33
4FFF#/ 4AAA#/ 4CC#/	4ffff#\
8CCC#/L	[4cccc#\
8CCC#/J	.
=34	=34
4FFF#/ 4AAA#/ 4CC#/	4cccc#\]
8CCC#/L	4r
8CCC#/J	.
=35	=35
4FFF#/ 4AAA#/ 4CC#/	2r
4r	.
=36	=36
4FFF#/ 4AAA#/ 4CC#/	2r
4r	.
=37	=37
!!pagebreak:original
2r	[2A#/ [2a#/
=38	=38
2r	2A#/] 2a#/]
=39	=39
4FFF#/ 4AAA#/ 4CC#/	2r
4r	.
=40	=40
4FFF#/ 4AAA#/ 4CC#/	2r
4r	.
=41	=41
2r	[2A#/ [2a#/
=42	=42
2r	2A#/] 2a#/]
==	==
*-	*-
